X:1
T:Wounded for Our Transgressions
T:Lelia Naylor Morris, 1911
T:Wounded for Our Transgressions
T:Public Domain
T:Public Domain
T:Public Domain
T:Public Domain
T:Public Domain
C:Lelia Naylor Morris, 1911
Z:Public Domain
%%score ( 1 2 ) ( 3 4 )
L:1/8
M:6/4
K:Eb
V:1 treble 
V:2 treble 
V:3 bass 
V:4 bass 
V:1
 [EGBe]6 E4 [EG]2 | [EB]2 [Ec]2 [EB]2 [B,G]2 [A,B,F]2 [A,B,]2 | %2
w: 1.~Sing we the|es of Je- sus, the won-|
w: 2.~To Beth- le-|of Ju- de- a a Babe|
w: 3.~Glo- ry to|in the high- est, our glad|
 [EGe]2 [EGd]2 [EGc]2 [EB]2 [E=A]2 [EB]2 | (z2 FG A2 D6) | [FABd]6 F4 G2 | %5
w: der- ful Sav- ior of men;||how He died|
w: in a man- ger He came;||He a life|
w: hearts ex- ult- ing- ly sing,||es for- ev-|
 [FA]2 [GB]2 [Ac]2 A2 G2 F2 | [df]2 [ce]2 [Bd]2 [Ac]2 [Bd]3 [Ac] | ([^Fc]6 [GB]6) | %8
w: ran- som, yet liv- eth in|gain; Tell how His grace is|suf- *|
w: low- ly, en- dur- ing the|shame; Tempt- ed in all points|as *|
w: ev- er to Je- sus our|King; No more de- spised and|re- *|
 (z2 [B,G]2 [B,E]2) (z2 [=B,F]2) [B,FG]2 | [CEG]2 [Ec]2 [Fd]2 [Ge]2 [Fd]2 [Ec]2 | %10
w: * * * fi-|* a world of lost sin-|
w: * * * we|* and yet with- out sin|
w: * * * ject-|* for sin- ners to suf-|
 G2 [=B,DG]2 [CEG]2 [DFG]2 [CEG]2 [B,DG]2 | (z2 [ce]2 [df]2 [eg]2 [df]2 [ce]2) | %12
w: ners to save; Tell how who-||
w: was He found; God- man, our||
w: fer and die, Wor- shipped, en-||
 (z2 [=A,E]2 [A,E]2) (z2 [A,E]2) [A,EF]2 | F2 [F=A]2 [FAc]2 [GAe]2 [FAd]2 [EAc]2 | %14
w: * * * be-|* eth a per- fect sal-|
w: * * * He|* and His grace doth to|
w: * * * ex-|* ed, He liv- eth for-|
 [Fdf]2 [Fce]2 [FBd]2 [E=Ac]2 [EG]2 [EA]2 | (D2 F2 E2 D2 [DF]2 [DAB]2) || %16
w: tion shall have. * * *||
w: ners a- bound. Wound- ed for|our * * * * *|
w: er on high. * * *||
"^Refrain" [EGB]2 [EGc]2 [EGB]2 ([B,G]2 [A,B,F]2) [G,B,E]2 | %17
w: |
w: gres- sions, Tread- ing * the|
w: |
 (z2 [B,E]2 [B,E]2) (z2 [=B,F]2 [B,F]2) | E2 [G,CE]2 [G,CE]2 E2 ([^F,=A,E]2 z) E | %19
w: ||
w: |* press a- lone; Brought as|
w: ||
 z2 [G,B,E]2 [G,B,E]2 z2 [A,B,D]2 [DFAB]2 | [EGB]2 [EGc]2 [EGB]2 [B,G]2 [A,B,F]2 [G,B,E]2 | %21
w: ||
w: |* slaugh- ter, Je- sus the|
w: ||
 (z2 [B,E]2 [B,E]2) (z2 [=B,F]2 [B,F]2) | [=A,EG]2 [A,EF]2 [A,E]2 [A,EG]2 [A,EF]2 [A,E]2 | %23
w: ||
w: |* fi- nite One. Shall we|
w: ||
 (z2 [db]2 [ec']2 [fd']2 [ec']2 [db]2) | [Bd]2 [Ac]2 [GB]2 [FA]2 [GB]3 [FA] | [EG]6 [GB]6 | %26
w: |||
w: |praise Him for- ev- er, Wor-|ship His|
w: |||
 [Ac]2 [A=B]2 [Ac]2 [ce]2 [_Bd]2 [Ac]2 | [GB]12 | .[Ge]2 .[Ge]2 .[Ge]2 .[^Fe]2 .[Fd]2 .[Fc]2 | %29
w: |||
w: Name and a- dore? He who|was|slain, but now liv- eth a-|
w: |||
 .[GB]2 .[Ge]2 .[Ge]2 [^Fe]4 [=Ae][Ae] | [Bef]2 [Be]2 [Ac]2 (B2 g2) [Adf]2 | (G2 G2 A2 [Ge]6) |] %32
w: |||
w: gain, Is our Sav- ior for-|ev- er- more. * * *||
w: |||
V:2
 x6 E4 x2 | x12 | x12 | (c6 D6) | x6 F4 G2 | x6 A2 G2 F2 | x12 | x12 | G6 G4 x2 | x12 | G2 x10 | %11
w: prais-|||Sing *|for our|glo- ry a-|||cient *||ev-|
w: hem|||Lived *|of the|cross and its|||are, *||frail-|
w: God|||Prais- *|er and|Sav- ior and|||ed, *||throned|
 (G6 G6) | G6 F4 x2 | F2 x10 | x12 | B6- B4 x2 || x12 | G6 G6 | E2 x2 E2 [^F,=A,]2 x4 | G6 F4 x2 | %20
w: er *|liev- *|va-|||||||
w: ties *|knows, *|sin-||trans- *||wine- *|a lamb to|the *|
w: and *|alt- *|ev-|||||||
 x12 | G6 G6 | x12 | (B6- B6) | x12 | x12 | x12 | x12 | x12 | x12 | x6 [GB]4 x2 | e6- x6 |] %32
w: ||||||||||||
w: |In- *||not *|||||||||
w: ||||||||||||
V:3
 (z2 [G,B,]2 [G,B,]2) (z2 [G,C]2) [G,C]2 | [G,,G,]2 [A,,A,]2 [G,,G,]2 [E,,E,]6 | %2
w: * * * ~|~ ~ ~ ~|
 z2 [G,B,]2 [G,B,]2 [G,,G,]2 [^F,,^F,]2 [G,,G,]2 | (z2 [A,B,D]2 [A,B,D]2 z2 [A,B,]2 [A,B,D]2) | %4
w: ~ ~ ~ ~ ~||
 z2 [A,B,D]2 [A,B,D]2 (z2 [A,B,D]2) [A,B,D]2 | z2 [A,B,D]2 [A,B,D]2 z2 [A,B,D]2 [A,B,D]2 | %6
w: * * * ~|~ ~ ~ ~|
 z2 [A,B,D]2 [A,B,D]2 z2 [A,B,D]2 [A,B,D]2 | z2 [^F,=A,E]2 [F,A,E]2 z2 [G,B,E]2 [G,B,E]2 | %8
w: ~ ~ ~ ~||
 [E,,E,]6 [E,,D,]6 | z2 [G,C]2 [G,C]2 z2 [G,C]2 [G,C]2 | z2 G,2 G,2 z2 G,2 G,2 | %11
w: * ~|~ ~ ~ ~|~ ~ ~ ~|
 z2 [G,C]2 [G,C]2 z2 [G,C]2 [G,C]2 | [C,,C,]6 [F,,F,]6 | z2 [F,=A,E]2 [F,A,E]2 z2 [F,A,]2 [F,A,]2 | %14
w: |* ~|~ ~ ~ ~|
 z2 [F,B,D]2 [F,B,D]2 z2 [F,B,]2 [F,C]2 | [B,,,B,,]2 [D,D]2 [C,C]2 [B,,B,]2 [A,,A,]2 [F,,F,]2 || %16
w: ~ ~ ~ ~||
 z2 [G,B,]2 [G,B,]2 [B,,,B,,]6 | [E,,E,]6 [D,,D,]6 | [C,,C,]6 [_C,,_C,]6 | [B,,,B,,]6 [B,,,B,,]6 | %20
w: ~ ~ ~|~ ~|~ ~|~ ~|
 z2 [G,B,]2 [G,B,]2 [B,,,B,,]6 | [E,,E,]6 [D,,D,]6 | [C,,C,]6 [F,,F,]6 | %23
w: ~ ~ ~|* ~|~ ~|
 z2 [F,B,D]2 [F,B,D]2 z2 [F,B,D]2 [F,B,D]2 | z2 [A,B,D]2 [A,B,D]2 z2 [A,B,D]2 [A,B,D]2 | %25
w: ~ ~ ~ ~|~ ~ ~ ~|
 (z2 [G,B,]2 [G,B,]2) (z2 [G,B,E]2 [G,B,E]2) | z2 [A,=B,D]2 [A,CE]2 z2 [A,CE]2 [A,CE]2 | %27
w: |~ ~ ~ ~|
 z2 [G,B,E]2 [G,B,E]2 z2 [G,B,E]2 [G,B,E]2 | [E,B,]2 [E,B,]2 [E,B,]2 [=A,C]2 [A,D]2 [A,E]2 | %29
w: ~ ~ ~ ~|* ~ ~ ~ ~ ~|
 [B,E]2 [B,E]2 [B,E]2 [_CE]4 [CE][CE] | [B,E]2 [G,E]2 [A,E]2 [B,E]4 [B,,B,]2 | %31
w: ~ ~ ~ ~ ~ ~|~ ~ ~ ~ ~|
 B,2 C2 _C2 [E,B,]6 |] %32
w: ~ ~ ~ ~|
V:4
 [G,,E,]4 [C,,C,]4 x4 | x12 | [E,,E,]4 x8 | [F,,F,]4 [B,,,B,,]4 x4 | [F,,F,]4 [B,,,B,,]4 x4 | %5
w: ~ ~||~|~ *|~ ~|
 [F,,F,]4 [B,,,B,,]4 x4 | [B,,,B,,]4 [B,,,B,,]4 x4 | [E,,E,]4 [E,,E,]4 x4 | x12 | %9
w: ~ ~|~ *|~ *||
 [C,,C,]4 [C,,C,]4 x4 | G,,4 G,,4 x4 | [C,,C,]4 [C,,C,]4 x4 | x12 | [C,,C,]4 [F,,F,]4 x4 | %14
w: ~ *|~ *|~ *||~ *|
 [F,,F,]4 [F,,F,]4 x4 | x12 || [E,,E,]6 x6 | x12 | x12 | x12 | [E,,E,]6 x6 | x12 | x12 | %23
w: ~ *||~||||~|||
 [B,,,B,,]6 [B,,,B,,]6 | [B,,,B,,]6 [B,,,B,,]6 | [E,,E,]6 [E,,E,]6 | [C,,A,,]6 [C,,A,,]6 | %27
w: ~ ~|~ ~|~ *|~ *|
 [E,,E,]6 [E,,E,]6 | x12 | x12 | x12 | E,6- x6 |] %32
w: ~ *||||~|

